X: 9916
T: Destination Venus
R: waltz
M: 3/4
K: Dmajor
|:FA Bd cB|c2 e2 e2|dB AG FE|F2 A2 A2|FA Bd cB|
c2 e2 ef|1 gf ed cB|cB AG FE:|2 gf ed cA|d3 dcd||
|:e2 ed ef|g2 f2 e2|d2 dc de|f2 e2 d2|c2 A2 A2|
AB cd ed|1 c2 A2 AB|AB cd ef:|2 c2 A2 AB|AB AG FE||

